img/icons/electronic/plug.svg

<svg xmlns="http://www.w3.org/2000/svg" viewBox="0 0 44 48"><g data-name="Layer 2"><path d="M39 20a10 10 0 00-10 10v8a8 8 0 01-16 0v-6a12 12 0 0011-12V10h-6V0h-2v10H8V0H6v10H0v10a12 12 0 0011 12v6a10 10 0 0020 0v-8a8 8 0 018-8h5v-2zM2 20v-8h20v8a10 10 0 01-20 0z" fill="#231f20" data-name="Device / Electronic"/></g></svg>

<svg xmlns="http://www.w3.org/2000/svg" viewBox="0 0 44 48"><defs><style>.cls-1{fill:#231f20;}</style></defs><title>Plug</title><g id="Layer_2" data-name="Layer 2"><g id="Icons"><g id="Device_Electronic" data-name="Device / Electronic"><path id="Plug" class="cls-1" d="M39,20A10,10,0,0,0,29,30v8a8,8,0,0,1-16,0V32A12,12,0,0,0,24,20V10H18V0H16V10H8V0H6V10H0V20A12,12,0,0,0,11,32V38a10,10,0,0,0,20,0V30a8,8,0,0,1,8-8h5V20ZM2,20V12H22v8A10,10,0,0,1,2,20Z"/></g></g></g></svg>
